images/add-btn.svg

<svg width="150" height="50" viewBox="0 0 150 50" fill="none" xmlns="http://www.w3.org/2000/svg">
<rect x="1" y="1" width="148" height="48" rx="1" stroke="white" stroke-width="2"/>
<path d="M86 23.7778H76.2222V14H73.7778V23.7778H64V26.2222H73.7778V36H76.2222V26.2222H86V23.7778Z" fill="white"/>
</svg>

<svg xmlns="http://www.w3.org/2000/svg" width="150" height="50" fill="none"><rect width="148" height="48" x="1" y="1" stroke="#fff" stroke-width="2" rx="1"/><path fill="#fff" d="M86 23.8h-9.8V14h-2.4v9.8H64v2.4h9.8V36h2.4v-9.8H86v-2.4Z"/></svg>
